X: 40903
T: Trim The Velvet
R: reel
M: 4/4
K: Gmajor
~G2GB AGFD|GBdB cAFA|~G2GB AGFA|d2fd cAFA|
G2GB A2 Ac|B2Bdc AFA|G2GB AGFA|defd cAFA||
dgeg dg~g2|dedB cAFA|d2eg dg~g2|defd cAFA|
d2de dBGB|dedB cAFA|dgeg dg~g2|defd cAFA||
g2ga (3bagaf|g2ab c'baf|g2bg fgaf|de(3fed cAFA|
g2ga (3bagaf|g2ab c'baf|g2bg fgaf|de(3fed cAFA||
BGdG BGGA|(3BAG dB cAFA|BGdG BGGA|d2fd cAFA|
BGdG BGGA|BGdG cAFA|BGG2 cAFA|d2fd cAFA||

